X:126
T:Le pauvre paysan
R:Chanson
O:France
B:Le livre des Chansons (Henri Davenson) n°126
Z:<anamnese@caramail.com> -- http://anamnese.fr.st
M:6/8
L:1/8
Q:1/4=120
K:G
E2 F G2 A | B2 A B2 c | Hd2-d z2 | d2 e d2 c | B2 B c2 d | (B3-B2 (3A/B/c/) |
B3-B z2 | (B2 A) G2 F | F2 G {AB}A2 G | F3-F z2 | (E2 F) G2 A | B2 B A2 B |
(A3/2B/4c/4) B2 e2-|e3 d2 B | c2 B A2 c | B3 E3 ||
W:De toutes les richesses d'à présent, je n'aspire qu'à la sagesse
W:Je suis un pauvre paysan, qui vient de perdre sa richesse.
W:La mort me ravit aujourd'hui, la plus aimable ménagère.
W:Voyez comme je suis réduit : J'ai six enfants dans ma chaumière. /.../

